.local/share/icons/Gruvbox-Plus-Dark/actions/16/object-ungroup.svg

<svg xmlns="http://www.w3.org/2000/svg" width="16" height="16" viewBox="0 0 16 16">
 <defs>
  <style id="current-color-scheme" type="text/css">
   .ColorScheme-Text { color:#ebdbb2; } .ColorScheme-Highlight { color:#458588; }
  </style>
 </defs>
 <path style="fill:currentColor" class="ColorScheme-Text" d="M 3 1 C 1.892 1 1 1.892 1 3 L 1 5 L 3 5 L 3 3 L 5 3 L 5 1 L 3 1 z M 11 1 L 11 3 L 13 3 L 13 5 L 15 5 L 15 3 C 15 1.892 14.108 1 13 1 L 11 1 z M 6 4 C 4.8954 4 4 4.8954 4 6 C 4 7.1046 4.8954 8 6 8 C 7.1046 8 8 7.1046 8 6 C 8 4.8954 7.1046 4 6 4 z M 9 4 L 9 8 L 12 8 L 12 4 L 9 4 z M 5 9 L 5 12 L 7 12 L 7 9 L 5 9 z M 10.5 9 L 9 12 L 12 12 L 10.5 9 z M 1 11 L 1 13 C 1 14.108 1.892 15 3 15 L 5 15 L 5 13 L 3 13 L 3 11 L 1 11 z M 13 11 L 13 13 L 11 13 L 11 15 L 13 15 C 14.108 15 15 14.108 15 13 L 15 11 L 13 11 z"/>
</svg>

<svg width="16" height="16" version="1.1" xmlns="http://www.w3.org/2000/svg">
  <defs>
    <style id="current-color-scheme" type="text/css">.ColorScheme-Text { color:#ebdbb2; } .ColorScheme-Highlight { color:#458588; }</style>
  </defs>
  <path class="ColorScheme-Text" d="m3 1c-2 0-2 2-2 2v2h2v-2h2v-2h-2zm8 0v2h2v2h2v-2c0-2-2-2-2-2h-2zm-2 3c-1.657 0-3 1.343-3 3h3v3c1.657 0 3-1.343 3-3s-1.343-3-3-3zm-5 4v4h4v-4h-4zm-3 3v2c0 2 2 2 2 2h2v-2h-2v-2h-2zm12 0v2h-2v2h2c2 0 2-2 2-2v-2h-2z" fill="currentColor"/>
</svg>
